src/components/Icon/assets/ruler.svg

<svg width="24" height="24" viewBox="0 0 24 24" fill="none" xmlns="http://www.w3.org/2000/svg">
<path fill-rule="evenodd" clip-rule="evenodd" d="M7.75747 20.4854L3.51447 16.2424L4.92947 14.8284L7.05047 16.9494L8.46447 15.5354L6.34347 13.4144L7.75747 12.0004L9.17147 13.4144L10.5855 12.0004L9.17147 10.5864L10.5865 9.1714L12.0005 10.5854L13.4145 9.1714L12.0005 7.7574L13.4145 6.3424L15.5355 8.4644L16.9495 7.0504L14.8285 4.9284L16.2425 3.5144L20.4855 7.7574L7.75747 20.4854ZM22.2535 6.69637L17.3035 1.74737C17.0205 1.46437 16.6435 1.30737 16.2425 1.30737H16.2415C15.8405 1.30837 15.4645 1.46437 15.1825 1.74737L1.74747 15.1824C1.16247 15.7674 1.16247 16.7184 1.74747 17.3034L6.69647 22.2534C6.98947 22.5454 7.37347 22.6914 7.75747 22.6914C8.14147 22.6914 8.52547 22.5454 8.81847 22.2534L22.2535 8.81837C22.8385 8.23337 22.8385 7.28137 22.2535 6.69637V6.69637Z" fill="#65676A"/>
</svg>

<svg xmlns="http://www.w3.org/2000/svg" width="24" height="24" viewBox="0 0 24 24">
    <path fill="#65676A" fill-rule="evenodd" d="M7.758 20.485l-4.244-4.243 1.416-1.414 2.12 2.121 1.414-1.414-2.12-2.12L7.756 12l1.415 1.414L10.585 12l-1.414-1.414 1.415-1.415 1.415 1.414 1.414-1.414L12 7.757l1.414-1.415 2.12 2.122L16.95 7.05l-2.121-2.122 1.413-1.414 4.243 4.243L7.758 20.485zM22.252 6.696l-4.95-4.949c-.283-.283-.66-.44-1.06-.44h-.002c-.4.001-.777.157-1.059.44L1.748 15.182c-.585.585-.585 1.536 0 2.121l4.949 4.95c.292.292.676.438 1.06.438.385 0 .768-.146 1.062-.438L22.252 8.818c.585-.585.585-1.537 0-2.122z"/>
</svg>
